X: 32966
T: Preston City, The
R: mazurka
M: 3/4
K: Amajor
|:E2|A2 AE Ac|A2 AE Ac|A2 AE Ac|d4 B2|
G2 GE GB|G2 GE GB|GB ed cB|A4:|
|:E2|e2 ec Aa|f2 d2 B2|G2 GB ed|c2 A2 E2|
e2 ec Aa|f2 d2 B2|G2 GB eG|A4:|
K: DMaj
|:A2|d2 dA FA|d4 A2|fe dc BA|G4 E2|
e2 ec Ac|e4 A2|ag fe dc|d4:|

